X: 127
T: the Reel of Glamis
%%VWML:Wrights-3753-p64-0
F: http://www.vwml.org/record/Wrights/3753/p64
%R: reel
B: Daniel Wright "Wright's Compleat Collection of Celebrated Country Dances" 1740 p.64
S: http://library.efdss.org/cgi-bin/dancebooks.cgi
Z: 2014 John Chambers <jc:trillian.mit.edu>
N: Repeats modified to match the "Each strain twice" instruction.
M: C|
L: 1/8
K: G
%-------------------------
|:\
GdBd A/A/A ce | GdBd GdBd |\
cd B>c A/A/A ce | dcBA GABd :|
|:\
G/G/G gG AB c>e | G/G/G gG G/G/G gG |\
G/G/G gG ABce | dcBA GABd :|
%-------------------------
%%center Each strain twice.
%%begintext align
%% The 1st Man turns the 2d Wo. and fall back and
%% turn S. then 1st Wo. sett to the 2d Man, and
%% fall back and turn S. the 1st Man change
%% places with the 2d Wo. then 1st Wo. change
%% places with the 2d Man, then all four meet
%% and turn S. then the 1st Cu. being in the
%% 2d Cu. place, lead thro' and cast off. :|
%%endtext
%-------------------------
%%sep 2 4 300
T: Willy Wilkey
T: Longways for as many ...
%R: reel, march
B: Daniel Wright "Wright's Compleat Collection of Celebrated Country Dances" 1740 p.64
S: http://library.efdss.org/cgi-bin/dancebooks.cgi
Z: 2014 John Chambers <jc:trillian.mit.edu>
N: The 2nd strain has initial repeat but no final repeat; not fixed.
M: C|
L: 1/8
K:F %orDm
%-------------------------
d2 |\
c2F2 A2GF | c2F2 F2d2 | c2F2 A2GF | G2D2 D2d2 |\ c2F2 A2GF | c2F2 F2d2 | c2F2 A2GF | G2D2 D2 :|
|: de |\
f3g g4 | a2 A4 e2 | f3g g4 | a2 A4 de |\
f3g a3g | agab agfe | fedc dcBA | G2D2 D2 |] %-------------------------
%%begintext align
%% The 1st Man sett to his own, and cross over,
%% with the 2d Wo. 1st and 2d Wo. sett and cross
%% over, and change places; 1st and 2d Man take
%% hands and lead between 1st and 2d Wo. and
%% come into their places again; .| all four clap and
%% go into their places again, 1st and 2d Wo. take
%% hands and lead between the 1st and 2d Men in their %% own places again; all 4 clap, and go half round
%% in their places again, the rest doing the same. :| %%endtext
%-------------------------
%%sep 2 4 300
